X: 400
T:Popovicanka
O:Serbia 
F: http://www.youtube.com/watch?v=wU2EdqdqKl4
F: http://www.youtube.com/watch?v=LaLdlGQ-iT8
Q:1/4=120
L:1/8
M:2/4
K:Am
|: "G"G4     | AG "Am"A2   | "G"GG GD| "Am"A4 |\
   "G".G2 Bc |dc B2        | BG cB   | "Am"A4 |
   "G"G4     | AG "Am"A2   | "G"GG GD| "Am"A4 |\
   "G".G2 Bc |dc B2        | BG cB   | "Am"A4 :|
|: "G"d2 B2  | "Am"c2 "G"B2| B2 cB   |\
   "Am"A4    | "G".G2 Bc   | dc B2   | BG cB  | "Am"A4|
   "G"d2 B2  | "Am"c2 B2   | B2 cB   | "Am"A4 |\
   "G".G2 Bc | dc B2       | BG cB   | "Am"A4 :|



